www/assets/icons/campaign.svg

<svg xmlns="http://www.w3.org/2000/svg" width="24" height="24" viewBox="0 0 24 24" fill='currentColor'><path d="M18 11v2h4v-2zm-2 6.61c.96.71 2.21 1.65 3.2 2.39.4-.53.8-1.07 1.2-1.6-.99-.74-2.24-1.68-3.2-2.4-.4.54-.8 1.08-1.2 1.61M20.4 5.6c-.4-.53-.8-1.07-1.2-1.6-.99.74-2.24 1.68-3.2 2.4.4.53.8 1.07 1.2 1.6.96-.72 2.21-1.65 3.2-2.4M4 9c-1.1 0-2 .9-2 2v2c0 1.1.9 2 2 2h1v4h2v-4h1l5 3V6L8 9zm11.5 3c0-1.33-.58-2.53-1.5-3.35v6.69c.92-.81 1.5-2.01 1.5-3.34"/></svg>

<svg width="24" height="24" viewBox="0 0 24 24" xmlns="http://www.w3.org/2000/svg" fill='currentColor'><path d="M18 11V13H22V11H18ZM16 17.61C16.96 18.32 18.21 19.26 19.2 20C19.6 19.47 20 18.93 20.4 18.4C19.41 17.66 18.16 16.72 17.2 16C16.8 16.54 16.4 17.08 16 17.61ZM20.4 5.6C20 5.07 19.6 4.53 19.2 4C18.21 4.74 16.96 5.68 16 6.4C16.4 6.93 16.8 7.47 17.2 8C18.16 7.28 19.41 6.35 20.4 5.6ZM4 9C2.9 9 2 9.9 2 11V13C2 14.1 2.9 15 4 15H5V19H7V15H8L13 18V6L8 9H4ZM15.5 12C15.5 10.67 14.92 9.47 14 8.65V15.34C14.92 14.53 15.5 13.33 15.5 12Z"/></svg>
